icons/funds-line.svg

<svg xmlns="http://www.w3.org/2000/svg" width="24" height="24" fill="none"><g clip-path="url(#a)"><g><path fill="#121212" d="M4.40599 14.523L7.80799 11.121L10.636 13.95L13.793 10.793L12 9H17V14L15.207 12.207L10.636 16.778L7.80799 13.95L5.33299 16.424C6.45641 18.1149 8.18062 19.3154 10.1562 19.7823C12.1318 20.2493 14.2111 19.9477 15.9726 18.9387C17.7341 17.9297 19.0462 16.2888 19.6429 14.3484C20.2396 12.4081 20.0764 10.3134 19.1862 8.48893C18.2961 6.66446 16.7456 5.24663 14.849 4.52274C12.9524 3.79886 10.8516 3.82307 8.97218 4.59047C7.09277 5.35787 5.57539 6.81106 4.72752 8.65556C3.87966 10.5001 3.76471 12.5979 4.40599 14.524V14.523ZM2.86799 16.081L2.85799 16.071L2.86199 16.067C2.29192 14.787 1.9982 13.4012 1.99999 12C1.99999 6.477 6.47699 2 12 2C17.523 2 22 6.477 22 12C22 17.523 17.523 22 12 22C7.92999 22 4.42999 19.57 2.86799 16.081Z"/></g></g><defs><clipPath id="a"><rect width="24" height="24" fill="white"/></clipPath></defs></svg>

<svg width="24" height="24" fill="none" xmlns="http://www.w3.org/2000/svg"><g clip-path="url(#a)"><path d="m4.406 14.523 3.402-3.402 2.828 2.829 3.157-3.157L12 9h5v5l-1.793-1.793-4.571 4.571-2.828-2.828-2.475 2.474a8 8 0 1 0-.927-1.9v-.001Zm-1.538 1.558-.01-.01.004-.004A9.965 9.965 0 0 1 2 12C2 6.477 6.477 2 12 2s10 4.477 10 10-4.477 10-10 10c-4.07 0-7.57-2.43-9.132-5.919Z" /></g><defs><clipPath id="a"><path fill="#fff" d="M0 0h24v24H0z"/></clipPath></defs></svg>
